X: 49
T:Dawn
R:Reel
H:There are two distinct versions of this reel.
N:Both versions are also sometimes played in G.
D:De Dannan: Mist Covered Mountain. Dubliners: 25 Years Celebration.
D:Matt Molloy & Sean Keane: Contentment is Wealth.
Z:id:hn-reel-42
M:C|
L:1/8
Q:1/4=200
K:A
|"Version 1" A,2CE D2FD|E2GB ~A3c|d2fd edcA|~B3c BAEC|
A,2CE D2FD|E2GB ~A3c|d2fd edcA|B2AB cAA2:|
|:c2ec fcec|A2Ac BAFD|E2EF ABcA|defg aefe|
c2ec fcec|A2Ac BAFA|E2EF ABcA|dfed cAA2:|
|"Version 2" A,2CE D2FD|E2GB AdcA|BE~E2 cE~E2|BdcB AFEC|
A,2CE D2FD|E2GB ABce|fece aece|dcBd cAA2:|
|:a2ae fece|fbba geef|(3gfe be gebe|ac'ea c'eac'|
a2ae fece|dcBc defg|[1  (3agf ge f2ec|dcBd cAA2:|[2 afec d2cd|ecdB cAA2|]
